!!!SOCIAL_FUNCTION:	songs of the peyote ceremony
!!!PDT:	1936
!!!OTL: No_52_Daybreak_Song_of_Peyote_Ceremony.krn
!!!REG: Oklahoma and Montana
!!!LANG: Tone
!!!LING_GROUP: Algonquin
**kern
*staff1
=1-
*clefF4
*k[f#c#g#d#]
*M2/4
4r
8.E\L
16e\Jk
=2
16e\LK
8.e\J
8e\L
8e\J
=3
4e\
(16B\LL
16G#\JJ)
16r
16e\
=4
16e\LK
8.e\J
8e\L
8e\J
=5
4e\
16c#\LK
8.c#\J
=6
16c#\LK
8.c#\J
8c#\L
8c#\J
=7
4c#\
8.G#\L
16e\Jk
=8
16e\LK
8.e\J
8e\L
8e\J
=9
4e\
8.r
16f#\
=10
16e\LK
8.e\J
8e\L
8e\J
=11
4e\
8.c#\L
16B\Jk
=12
*M3/4
8B\L
8B\J
8B\L
8c#\J
8B\
8r
=13
=
*M2/4
8c#\L
8c#\J
8c#\L
8c#\J
=14
8c#\L
8c#\J
8e\L
8c#\J
=15
8c#\L
8c#\J
8c#\
8r
=16
8c#\L
8c#\J
8c#\L
8c#\J
=17
8c#\L
8c#\J
8e\L
8c#\J
=18
8c#\L
8c#\J
8c#\L
8c#\J
=19
8c#\L
16c#\L
16c#\JJ
8c#\L
16F#\L
16F#\JJ
=20
8F#\L
8F#\J
4F#\
=21
8F#\L
8F#\J
8F#\L
8E\J
=22
*M3/4
8E\L
8E\J
8E\L
8E\J
8E\
8r
=23
4E\
4E\
4E\
=24
4E\
4r
4c#\
=25:|!
=
4E\
2r
==
*-
